X:1
T:Doppler Andante et Rondo
T:Doppler Andante et Rondo
%%score 1 2 { ( 3 5 ) | ( 4 6 ) }
L:1/8
Q:1/4=80
M:4/4
K:A
V:1 treble nm="Flute" snm="Fl."
V:2 treble nm="Flute" snm="Fl."
V:3 treble nm="Piano" snm="Pno."
V:5 treble 
V:4 bass 
V:6 bass 
V:1
 z8 | z8 | z8 | z8 | z8 | z8 | z8 | z8 | z8 | z8 | z8 | z4 z2!pp! (e>e') | e'6 (e>e') | %13
 e'4- e'(d'c'b) | (^ab=gb f3 c | d4) z2!<(! (f>f')!<)! |!f! f'4- f'/.e'/.d'/.b/ .f/.d/.B/.A/ | %17
 (G !>!d2) (c/B/ ^A2) z2 | (f c'2) (b/a/) g (d'2 g) | a2 z2 z!p! (d' c'>)b | %20
 (ae c>)A!<(! G z/ (f'/!<)! e'>)d' |!f! c'2-!<(! c'/(e'/^d'/e'/!<)! a')(c' !>!=d'>c') | %22
 b2- b/=f'/=g'/f'/ e'(gc'b | a2) z2 z/!pp! (c'/b/g/ e/d/B/f/ | %24
 e/a/e/c/ A/c/B/A/"_cresc." G) z/ (f'/ e'>)d' |!f! c'2- c'/(e'/^d'/e'/ a')(c' =d'>c') | %26
 b2- b/(=f'/=g'/f'/) (e'2 g)b | z/ (G/!<(!B/c/ ^e/)(d'/^b/c'/)!<)!!f! a'4- | %28
 a'2 !>!g'!>!f' !>!^d'/!>!e'/!>!g'/!>!f'/ (c'/=d'/f/).g/ | a2 z2!p! z (!>!=fed) | %30
 (c e3) z (!>!d'c'b) | (^ab g'3) (f'd'b |"_dim." gfdB) (G3 B) |!>(! (B4 A3)!>)! z |][K:C] z8 | %35
!f! a'2- (6:4:6(a'/f'/d'/a/f/e/) d2 (3f.e.d | .b2 .E2 z4 | (^D3/2(3^^C/4D/4^F/4 B>)A ^G>B E2 | z8 | %39
!f! a'2- (6:4:6(a'/f'/d'/a/f/d/) (A2 (3f).e.d | (cc'ba) (3gfe (3dcd | (e3 B) c4 | z8 | %43
!ff! b'2- (6:4:6(b'/g'/e'/b/g/e/) B2 (e'>b) |!p! (3:2:2(d'2 c') (3(.c'.b.a) (3(g^f)b- (3b(fb) | %45
 a2 g2- (3(gg^f (3eBG) | (3:2:2(^F e2- (3e).d.c (B2- (3BF)G | E2 z2 z4 | %48
 z2!pp! (e2- (3efe (3:2:2a2 e) | (d2- (3ded) c2 (3:2:2(e2 c) | (3B(^GB e2) (3z (^FA ^d2) | %51
 (3z (be) (3z (^dc') (3z (be) (3z (dc') | b2 z2 z2!pp! (e>e') |][K:A] e'6 (e>e') | e'4- e'(d'd'b) | %55
 (^ab=gb f3 c | d4) z2!<(! (f>f')!<)! |!f! f'4- f'/.e'/.d'/.b/ .f/.d/.B/.A/ | %58
 (G !>!d2) (c/B/ ^A2) z2 | (f c'2) (b/a/) g (!>!d'2 g) | a2 z2 z!p! (d' c'>)b | %61
 (ae c>)A G z/ (f'/"_cresc." e'>)d' |!f! c'2- c'/!<(!(e'/^d'/e'/ a')!<)!c' =d'>c' | %63
 b2- b/(=f'/=g'/f'/ e')(gc'b | a2) z2 z/!pp! (c'/b/g/ e/d/B/f/ | %65
 e/a/e/c/ A/c/B/A/ G) z/ (f'/"_cresc." e'>)(d' |!f! c'2-) c'/(e'/^d'/e'/ a')(c' =d'>c') | %67
 b2- b/(=f'/=g'/f'/ e')(g e'>)b |!ff! (c'^b/).c'/ .^d'/.^e'/.f'/.g'/ (a'4- | %69
 a'2 !>!g'!>!f') !>!^d'/!>!e'/!>!g'/!>!f'/ !>!c'/(!>!=d'/f/).g/ | a2 z2 z4 | %71
 z/!pp! (b/g/f/ e2- e>)(^e g/f/=e/d/ | c3) z z4 | z/!pp! (b/g/f/ e3) ^A (B/A/B/c/) | %74
 (d/c/d/^d/ e/d/e/f/ g/^^f/g/a/ b/^a/b/c'/) | (d'/c'/d'/^d'/ e'/^e'/f'/^^f'/ g'4) |!pp! a'8- | %77
!>(! a'8-!>)! | a'6 z2 | z8 | z8 | z8 | z8 | z8 | z8 | z8 | z8 | z8 | z8 |] %89
V:2
 z8 | z8 | z8 | z4 z2!p! (E>e) | e4- e z (E>e) | e4- e(e!<(! a>^e) | (g>!<)!f) Bc e>d!>(! (3dcB | %7
 c4-!>)! c z (c>c') |!<(! b4- b(B b>)a!<)! |"_cresc." (g4 b>)a (3agf | %10
 f>(e!>(! (3fe=c)!>)! (B3 ^D) | E6 z2 | z2!pp! (c3/2d/4e/4 d3) z | z2 (=G2 Ffed) | (c2 e2 ^A4) | %15
 z2 (B>b)"_cresc." b2 (d>d') |!f! d'4- d'/.g/.b/.g/ .d/.B/.G/.F/ | ^E2 z2 (e !>!=g2) (f/e/ | %18
 ^d2) z2 (B f2) (e/=d/) | c z/!p! (A/ a>f) (e3 d | c>)(c' a>)f!<(! e>(d'!<)! g>)b | %21
!f! a2-!<(! a/(c'/^b/c'/)!<)! c' a2 (a- | a/=f/e/d/) a>(a g) (e2 d | c>)!p!(a g>)f (e3 d | %24
 c>)(a g>)f"_cresc." e>(d' g>)b |!f! a2- a/(c'/^b/c'/) c' a2 a | (a/=f/d/f/ a2) g2 e'd' | %27
!<(! (c'>b) g^e!<)!!f! c'4- | c'2 !>!b!>!a (!>!g3 d) |!p! z (cBA) G4 |!p! z (!>!c'ba g)(=fed) | %31
 (cd d'3) (afd | BdBG =F2 ED) |!>(! (D4 C3)!>)! z |] %34
[K:C]!f! e'2- (6:4:6(e'/c'/a/e/c/B/) A2 (3c.B.A | f2 D2 z4 | %36
 E(5:4:5(^G/4B/4e/4g/4b/4 e'>)d' c'2 (3c'.b.a | (b4 e2) z2 | %38
!f! e'2- (7:4:7(e'/^c'/_b/g/e/^c/_B/ (G2) (3!>!g).f.e | d2 D2 z4 | z4 A4- | A2 (3(^G^FG A3) z | %42
!ff! ^f'2- (6:4:6(f'/^d'/b/^f/_e/B/) (^F2 (3c').b.a | g2 G2 z4 |!pp! e4 ^d4 | e4 B4 | %46
 (c2- (3c!>(!BA) _E2!>)! z2 | z2!pp! (e2- (3efe (3:2:2a2 e) | (d2- (3ded) (c2- (3cdc) | %49
 B2 (e2- (3efe (3:2:2a2 e) | (3:2:2(d2 b- (3b^g(d) (3:2:2c a2) (3(cBA) | %51
 ^G z (3((cBA) G) z (3(.c.B.A) | z2 (E>e) e4 |][K:A] z2!pp! (c3/2d/4e/4 d3) z | z2 (=G2 Ffed) | %55
 (c2 e2 ^A4) | z2 (B>b)"_cresc." b2 (d>d') |!f! d'4- d'/.g/.b/.g/ .d/.B/.G/.F/ | %58
 ^E2 z2 (e !>!=g2) (f/e/ | ^d2) z2 (B !>!f2) (e/=d/) | c z/!p! (A/ a>)f (e3 d | %61
 c>)(c' a>)f e>(d'"_cresc." g>)b |!f! a2- a/!<(!(c'/^b/c'/ c')!<)! a2 (a- | %63
 a/=f/e/d/) a>(a g) (e2 d | c>)!pp!(a g>)f (e3 d | c>)(a g>)f e>(d'"_cresc." g>)b | %66
!f! a2- a/(c'/^b/c'/ c') a2 a | (a/=f/d/f/ a2) g(B g2) | %68
!ff! ^e2 .f/.g/.a/.b/ c'/(f/a/).c'/ (f'>e' | ^d')!>!c'!>!b!>!a !>!g3 d | c2 z2 z4 | %71
 z/!pp! (d/B/A/ GA B/A/B/c/ dG | A3) z z4 | z2 z/!pp! (d/B/A/ =G2 ^G>)(^A | %74
 B>A G>)(A B/^A/B/c/ d/c/d/^a/ | b/^a/b/=a/) g(b d'>b g/e/^d/d/ | c)(^B,CE) (Acea) | %77
!pp!!>(! c'8-!>)! | c'6 z2 | z8 | z8 | z8 | z8 | z8 | z8 | z8 | z8 | z8 | z8 |] %89
V:3
 [CEc]3 [DEG] [CEA]2 [DFB]2 | [B,E]3 [G,D] [A,C]2 [A,CA]2 | D4 D=FED | %3
!pp! [CA][E,A,C][E,A,C][E,A,C] z [E,A,C][E,A,C][E,A,C] | %4
 z [E,G,D][E,G,D][E,G,D] z [E,G,D][E,G,D][E,G,D] | %5
 z [E,A,E][E,A,E][E,A,E] z [E,A,E][^E,A,^E][E,A,E] | z [A,B,F][A,B,F][A,B,F] z [DE][DE][DE] | %7
 z [CE][CE][CE] z [CEc][CEc][CEc] | z [B,EB][B,EB][B,EB] z [B,^DA][B,DA][B,DA] | %9
 z [B,DG][B,DG][B,DG] z [A,CA][A,CA][A,CA] | z [F,=CE][F,CE][F,CE] z [A,B,^D][A,B,G][A,B,F] | %11
 z [G,B,E][G,B,E][G,B,E] z [G,B,E][G,B,E][G,B,E] | z [=G,CE][G,CE][G,CE] z [^G,DE][G,DE][G,DE] | %13
 z [=G,CE][G,CE][G,CE] z [F,B,D][F,B,D][F,B,D] | z [=G,B,C] z [B,E=G] z [^A,EF] z [F,A,E] | %15
 z [F,B,D][F,B,D][F,B,D] z [B,DF][B,DF][B,DF] |!f! z [DFB][DFB][DFB] z [DFB][DFB][B,DF] | %17
!p! z [B,C^E][B,CE][B,CE] z [^A,C=E][A,CE][A,CE] | %18
 z [A,B,^D][A,B,D][A,B,D] z [G,B,=D][G,B,D][G,B,D] | z [E,A,C] z [E,A,C] z [E,G,D] z [E,G,D] | %20
 z [E,A,C] z [E,A,C] z [E,G,D] z [E,G,D] |!f! z [EAc] z [EAc] z [FAc] z [FAc] | %22
 z [FAB] z [FAB] z [EGc] z [EGB] |!pp! [CA][E,A,C] z [E,A,C] z [E,G,D] z [E,G,D] | %24
 z [E,A,C] z [E,A,C] z [E,G,D] z [E,G,D] |!f! z/ C/E/A/ c/A/E/A/ z/ C/E/A/ c/A/E/A/ | %26
 z/ B,/=F/A/ B/A/F/A/ z/ D/E/G/ B/G/E/G/ | z/ C/G/B/ c/B/G/B/ z/ C/F/A/ c/A/F/A/ | %28
 z/ ^D/F/A/ B/A/F/A/ z/ =D/E/G/ B/G/E/G/ | A [CE]2 [CE] B [B,D]2 [B,D] | %30
 A [CE]2 [CE] B [B,D]2 [B,D] | z [B,D]2 [B,D]2 [B,D]2 [B,-D] | [B,D]2 [B,D]4 [B,D]2 | %33
 [DG]4 [CA]2 z2 |] %34
[K:C] (3[E,A,C][E,A,C][E,A,C] (3[E,A,C][E,A,C][E,A,C] (3[E,A,C][E,A,C][E,A,C] (3[E,C][E,B,][E,A,] | %35
 (3[A,B,F][A,B,F][A,B,F] (3[A,B,F][A,B,F][A,B,F] (3[A,B,F][A,B,F][A,B,F] (3[A,B,F][A,B,E][A,B,D] | %36
 (3[B,DE][B,DE][B,DE] (3[B,DE][B,DE][B,DE] (3[A,CE][A,CE][A,CE] (3[CEc][CEB][CEA] | %37
 (3[A,B,^D][A,B,D][A,B,D] (3[A,B,D][A,B,D][A,B,D] (3[^G,B,E][G,B,E][G,B,E] (3[G,B,E][G,B,E][G,B,E] | %38
 (3[_B,EG][B,EG][B,EG] (3[B,EG][B,EG][B,EG] (3[B,EG][B,EG][B,EG] (3[B,EG][B,DF][B,^CE] | %39
 (3[A,DA][A,DA][A,DA] (3[A,DA][A,DA][A,DA] (3[A,DF][A,DF][A,DF] (3[A,F][A,E][A,D] | %40
 (3[A,CE][A,CE][A,CE] (3[A,CE][A,CE][A,CE] (3[A,B,F][A,B,F][A,B,F] (3[A,B,D][A,B,D][A,B,D] | %41
 (3[A,B,E][A,B,E][A,B,E] (3[^G,B,E][G,B,E][G,B,E] (3[E,A,CE][E,A,CE][E,A,CE] (3[E,A,CE][E,A,CE][E,A,CE] | %42
 (3[A,B,^D][A,B,D][A,B,D] (3[A,B,D][A,B,D][A,B,D] (3[A,B,^F][A,B,F][A,B,F] (3[A,B,F][A,B,F][A,B,F] | %43
 (3[G,B,G][G,B,G][G,B,G] (3[G,B,G][G,B,G][G,B,G] (3[B,EB][B,EB][B,EB] (3[B,EB][B,EB][B,EB] | z8 | %45
 z8 | (3z [^F,CE][F,CE] (3[F,CE][F,CE][F,CE] (3z [A,B,^D][A,B,D] (3[A,B,D][A,B,D][A,B,D] | %47
 (3^G,B,E (3G,B,E (3z E,A, (3CA,E, | (3z E,^G, (3B,G,E, (3z E,A, (3CA,E, | %49
 (3z E,B, (3DB,E, (3z E,A, (3CA,E, | (3z D,E, (3^G,B,E (3z ^D,^F, (3A,B,C | %51
 [^G,B,] z [A,C^D^F] z [G,B,E^G] z [A,CDF] z | [^G,B,E^G]2 z2 z4 |] %53
[K:A] z [=G,CE][G,CE][G,CE] z [^G,DE][G,DE][G,DE] | z [=G,CE][G,CE][G,CE] z [F,B,D][F,B,D][F,B,D] | %55
 z [=G,B,C] z [B,E=G] z [^A,EF] z [F,A,E] | z [F,B,D][F,B,D][F,B,D] z [B,DF][B,DF][B,DF] | %57
!f! z [DFB][DFB][DFB] z [DFB][DFB][B,DF] |!p! z [B,C^E][B,CE][B,CE] z [^A,C=E][A,CE][A,CE] | %59
 z [A,B,^D][A,B,D][A,B,D] z [G,B,=D][G,B,D][G,B,D] | z [E,A,C] z [E,A,C] z [E,G,D] z [E,G,D] | %61
 z [E,A,C] z [E,A,C] z [E,G,D] z [E,G,D] |!f! z [EAc] z [EAc] z [FAc] z [FAc] | %63
 z [FAB] z [FAB] z [EGc] z [EGB] |!pp! [CA][E,A,C] z [E,A,C] z [E,G,D] z [E,G,D] | %65
 z [E,A,C] z [E,A,C] z [E,G,D] z [E,G,D] |!f! z/ C/E/A/ c/A/E/A/ z/ C/E/A/ c/A/E/A/ | %67
 z/ B,/=F/A/ B/A/F/A/ z/ D/E/G/ B/G/E/G/ | z/ C/G/B/ c/B/G/B/ z/ C/F/A/ c/A/F/A/ | %69
 z/ ^D/F/A/ B/A/F/A/ z/ =D/E/G/ B/G/E/G/ | [CEc]3 [DEG] [CEA]2 [DFB]2 | [G,DE]3 [^^F,CE] [G,DE]4 | %72
 [CEc]3 [B,C^EG] [A,C=EA]2 [A,^DFB]2 | [G,DE]3 [^A,CE] [B,DE]4 | [G,D]8 | [DG]4 [DGB]4 | %76
 [CA] A,2 C [CE][EA][Ac][ce] | [Aca]4 [E,A,C]4 | [E,A,C]6 z2 | z8 | z8 | z8 | z8 | z8 | z8 | z8 | %86
 z8 | z8 | z8 |] %89
V:4
 [A,,E,A,]3 [B,,E,G,] [C,E,A,]2 [D,F,B,]2 | [G,,E,]3 [B,,E,] [A,,E,]2 [F,,C,F,]2 | B,,4 E,4 | %3
 [A,,E,] z z2 [A,,,A,,]4 | [B,,,B,,]4 [B,,,B,,]4 | [C,,C,]4 C,4 | [D,F,]4 A,G,F,G, | [A,,A,]4 A,4 | %8
 G,4 F,4 | ^E,4 F,4 | A,,4 B,,4 | E,,2 z2{/E,,} E,2 E,/D,/C,/B,,/ | ^A,,4 B,,3 z/ E,,/ | %13
 ^A,,4 B,,3 C,/D,/ | E, z C, z F, z F,, z | B,,2 z2 A,,2 z2 | [G,,G,]4 [G,,G,]4 | C,4 F,,4 | %18
 B,,4 E,,4 |!pp! [A,,,A,,] z [C,,C,] z [B,,,B,,] z [E,,,E,,] z | %20
 [A,,,A,,] z [C,,C,] z [B,,,B,,] z [E,,,E,,] z | %21
 [A,,,A,,][E,A,C][E,A,C][E,A,C] [G,,,G,,][F,A,C][F,A,C][F,A,C] | %22
 [D,,D,][D,A,B,][D,A,B,][D,A,B,] [E,,E,][E,G,D][E,G,D][E,G,D] | %23
 [A,,,A,,] z [C,,C,] z [B,,,B,,] z [E,,,E,,] z | [A,,,A,,] z [C,,C,] z [B,,,B,,] z [E,,,E,,] z | %25
 [A,,,A,,] [E,A,C]2 [E,A,C] [F,,,F,,] [C,F,A,]2 [C,F,A,] | %26
 [D,,D,] [D,A,B,]2 [D,A,B,] [E,,E,] [E,G,D]2 [E,G,D] | %27
 ^E,, [C,^E,B,]2 [C,E,B,] F,, [C,F,A,]2 [C,F,A,] | %28
 [B,,,B,,] [^D,A,B,]2 [D,A,B,] [E,,E,] [E,G,D]2 [E,G,D] | A,,4 A,,4 | A,,4 A,,4 | A,,4 A,,4 | %32
 A,,8 | A,,6 z2 |][K:C] [A,,,A,,]6 (3[A,,,A,,][B,,,B,,][C,,C,] | [D,,D,]6 (3[D,,D,][E,,E,][F,,F,] | %36
 [^G,,E,]4 [A,,E,]2 (3[A,,,A,,][B,,,B,,][C,,C,] | [B,,,B,,]4 [E,,E,]3 z | %38
 [^C,,^C,]6 (3[C,,C,][D,,D,][E,,E,] | [F,,F,]4 [D,,D,]2- (3[D,,D,][E,,E,][F,,F,] | %40
 [E,,E,]4 [D,,D,]2 [F,,F,]2 | [E,,E,]4 [A,,,A,,]4 | B,,,3 (3^D,,/^F,,/B,,/ ^D,4 | %43
 E,,3 (3G,,/B,,/E,/ G,4 | ^F,4 B,,4 | C,4 G,,4 | A,,4 B,,4 | [E,,E,]2 D,2 C,4 | B,,4 A,,4 | %49
 ^G,,4 A,,4 | E,,4 E,,4 | E,, z E,, z E,, z E,, z | E,,2 z2 z4 |][K:A] ^A,,4 B,,3 z/ E,,/ | %54
 ^A,,4 B,,3 C,/D,/ | E, z C, z F, z F,, z | B,,2 z2 A,,2 z2 | [G,,G,]4 [G,,G,]4 | C,4 F,,4 | %59
 B,,4 E,,4 |!pp! [A,,,A,,] z [C,,C,] z [B,,,B,,] z [E,,,E,,] z | %61
 [A,,,A,,] z [C,,C,] z [B,,,B,,] z [E,,,E,,] z | %62
 [A,,,A,,][E,A,C][E,A,C][E,A,C] [G,,,G,,][F,A,C][F,A,C][F,A,C] | %63
 [D,,D,][D,A,B,][D,A,B,][D,A,B,] [E,,E,][E,G,D][E,G,D][E,G,D] | %64
 [A,,,A,,] z [C,,C,] z [B,,,B,,] z [E,,,E,,] z | [A,,,A,,] z [C,,C,] z [B,,,B,,] z [E,,,E,,] z | %66
 [A,,,A,,] [E,A,C]2 [E,A,C] [F,,,F,,] [C,F,A,]2 [C,F,A,] | %67
 [D,,D,] [D,A,B,]2 [D,A,B,] [E,,E,] [E,G,D]2 [E,G,D] | %68
 ^E,, [C,^E,B,]2 [C,E,B,] F,, [C,F,A,]2 [C,F,A,] | %69
 [B,,,B,,] [^D,A,B,]2 [D,A,B,] [E,,E,] [E,G,D]2 [E,G,D] | %70
 [A,,E,A,]3 [B,,E,G,] [C,E,A,]2 [D,F,B,]2 | [E,,E,]8 | [A,,E,A,]3 [C,,C,] [F,,F,]2 [B,,,B,,]2 | %73
 [E,,E,]8 | E,,8 | E,4 E,4 | [A,,E,]8 | [A,E]4 [A,,,A,,]4 | [A,,,A,,]6 z2 | z8 | z8 | z8 | z8 | %83
 z8 | z8 | z8 | z8 | z8 | z8 |] %89
V:5
 x8 | x8 | F2 GA B3 c | x8 | x8 | x8 | x8 | x8 | x8 | x8 | x8 | x8 | x8 | x8 | x8 | x8 | x8 | x8 | %18
 x8 | x8 | x8 | x8 | x8 | x8 | x8 | x8 | x8 | x8 | x8 | x8 | x8 | x8 | x8 | x8 |][K:C] x8 | x8 | %36
 x8 | x8 | x8 | x8 | x8 | x8 | x8 | x8 | x8 | x8 | x8 | x8 | x8 | x8 | x8 | x8 | x8 |][K:A] x8 | %54
 x8 | x8 | x8 | x8 | x8 | x8 | x8 | x8 | x8 | x8 | x8 | x8 | x8 | x8 | x8 | x8 | x8 | x8 | x8 | %73
 x8 | x8 | x8 | x8 | x8 | x8 | x8 | x8 | x8 | x8 | x8 | x8 | x8 | x8 | x8 | x8 |] %89
V:6
 x8 | x8 | A,(A,G,F,) G,4 | x8 | x8 | x8 | x4 E,4 | x8 | x8 | x8 | x8 | x7/2 E,,/ z4 | x8 | x8 | %14
 x8 | x8 | x8 | x8 | x8 | x8 | x8 | x8 | x8 | x8 | x8 | x8 | x8 | x8 | x8 | x E,A,E, x =F,G,F, | %30
 x E,A,E, x =F,G,F, | x E,G,E, x E,G,E, | x2 E,2 G,2 E,2 | =F,2 E,4 z2 |][K:C] x8 | x8 | x8 | x8 | %38
 x8 | x8 | x8 | x8 | x8 | x8 | x8 | x8 | x8 | x8 | x8 | x8 | x8 | x8 | x8 |][K:A] x8 | x8 | x8 | %56
 x8 | x8 | x8 | x8 | x8 | x8 | x8 | x8 | x8 | x8 | x8 | x8 | x8 | x8 | x8 | x8 | x8 | x8 | x8 | %75
 x8 | x8 | x8 | x8 | x8 | x8 | x8 | x8 | x8 | x8 | x8 | x8 | x8 | x8 |] %89

